!!!OTL: DER MEYEN ISCH GEKOMMEN
!!!ARE: Europa, Mitteleuropa, Schweiz, Zuerich
!!!SCT: E1237
!!!YEM: Copyright 1995, estate of Helmut Schaffrath.
**kern
*ICvox
*Ivox
*M3/8
*k[f#]
*G:
{8g
=1
8b
8dd
8cc
=2
8b
8g}
{8a
=3
8b
8dd
8cc
=4
4a}
{8g
=5
8b
8dd
8cc
=6
8b
8g}
{8a
=7
8b
16dd
16cc
16a
16f#
=8
4g}
{8a
=9
8b
8dd
8cc
=10
4a}
{16g
16a
=11
8b
8dd
8cc
=12
4a}
{8g
=13
8b
8dd
8cc
=14
8b
8g}
{8a
=15
4b
8a
=16
4g}
{8a
=17
8b
8dd
8cc
=18
4a}
{16g
16a
=19
8b
8dd
8cc
=20
4a}
{8g
=21
8b
8dd
8cc
=22
8b
8g}
{8a
=23
4b
8a
=24
4g}
==
!!!AGN: Ansinge -, Brauchtums - Lied, Kirchen - Fest, Sommer - Tags - Lied
!!!ONB: ESAC (Essen Associative Code) Database: ERK3
!!!AMT: simple triple
!!!AIN: vox
!!!EED: Helmut Schaffrath
!!!EEV: 1.0
*-
